src/com/lilithsthrone/res/InventoryIcons/masculineWarningIcon.svg

<?xml version="1.0" encoding="UTF-8" standalone="no"?>
<!-- Created with Inkscape (http://www.inkscape.org/) -->

<svg
   xmlns:dc="http://purl.org/dc/elements/1.1/"
   xmlns:cc="http://creativecommons.org/ns#"
   xmlns:rdf="http://www.w3.org/1999/02/22-rdf-syntax-ns#"
   xmlns:svg="http://www.w3.org/2000/svg"
   xmlns="http://www.w3.org/2000/svg"
   xmlns:sodipodi="http://sodipodi.sourceforge.net/DTD/sodipodi-0.dtd"
   xmlns:inkscape="http://www.inkscape.org/namespaces/inkscape"
   viewBox="0 0 64.000001 64.000001"
   id="svg4311"
   version="1.1"
   inkscape:version="0.91 r13725"
   sodipodi:docname="masculineWarningIcon.svg">
  <defs
     id="defs4313">
    <inkscape:path-effect
       effect="powerstroke"
       id="path-effect4183"
       is_visible="true"
       offset_points="0.238227,0.51804536"
       sort_points="true"
       interpolator_type="Linear"
       interpolator_beta="0.2"
       start_linecap_type="zerowidth"
       linejoin_type="round"
       miter_limit="4"
       end_linecap_type="zerowidth"
       cusp_linecap_type="round" />
  </defs>
  <sodipodi:namedview
     id="base"
     pagecolor="#ffffff"
     bordercolor="#666666"
     borderopacity="1.0"
     inkscape:pageopacity="0.0"
     inkscape:pageshadow="2"
     inkscape:zoom="15.839192"
     inkscape:cx="22.502013"
     inkscape:cy="34.077677"
     inkscape:document-units="px"
     inkscape:current-layer="layer5"
     showgrid="false"
     units="px"
     inkscape:window-width="2560"
     inkscape:window-height="1388"
     inkscape:window-x="-8"
     inkscape:window-y="-8"
     inkscape:window-maximized="1" />
  <metadata
     id="metadata4316">
    <rdf:RDF>
      <cc:Work
         rdf:about="">
        <dc:format>image/svg+xml</dc:format>
        <dc:type
           rdf:resource="http://purl.org/dc/dcmitype/StillImage" />
        <dc:title />
      </cc:Work>
    </rdf:RDF>
  </metadata>
  <g
     inkscape:groupmode="layer"
     id="layer5"
     inkscape:label="Stage5"
     style="display:inline">
    <path
       style="fill:#ff2a2a;fill-rule:evenodd;stroke:#000000;stroke-width:1px;stroke-linecap:butt;stroke-linejoin:miter;stroke-opacity:1"
       d="M 38.101562 6.578125 L 42.597656 10.919922 L 49.767578 10.677734 L 39.396484 20.330078 C 36.243868 18.281075 34.331809 16.866974 27.615234 16.953125 C 2.3801447 17.276783 4.6398213 54.919162 27.992188 54.931641 C 46.585065 54.941641 51.719907 34.11627 43.447266 24.664062 L 53.533203 14.539062 L 53.167969 21.654297 L 57.783203 25.753906 L 57.417969 6.8203125 L 38.101562 6.578125 z M 28.302734 23.345703 A 12.584248 12.707915 0 0 1 40.888672 36.052734 A 12.584248 12.707915 0 0 1 28.302734 48.761719 A 12.584248 12.707915 0 0 1 15.71875 36.052734 A 12.584248 12.707915 0 0 1 28.302734 23.345703 z "
       id="path4141" />
  </g>
</svg>

<svg xmlns="http://www.w3.org/2000/svg" viewBox="0 0 64 64">
    <path fill="#ff2a2a" fill-rule="evenodd" stroke="#000" d="M38.102 6.578l4.496 4.342 7.17-.242-10.372 9.652c-3.152-2.049-5.064-3.463-11.78-3.377-25.236.324-22.976 37.966.376 37.979 18.593.01 23.728-20.816 15.455-30.268L53.533 14.54l-.365 7.115 4.615 4.1-.365-18.934-19.316-.242zm-9.8 16.768A12.584 12.708 0 0 1 40.89 36.053a12.584 12.708 0 0 1-12.586 12.709 12.584 12.708 0 0 1-12.584-12.71 12.584 12.708 0 0 1 12.584-12.706z"/>
</svg>
